X: 6
T: Seán Sa Cheo
R: reel
M: 4/4
L: 1/8
K: Amix
|: (3efe df eABd | efeB d2 BA | Beed efge | Bded cABd :||: cA ~A2 BABd | cA ~A2 BGBd | cA ~A2 EA ~A2 |[1 cAed cABd :|[2 cAed cAce || ~a2 c'a ~a2 c'a | ~a2 c'a e3 f | ~g2 bg agbg | ~g2 bg dgbg |a2 c'a abc'b | abc'a e2 ef | gfgb agef | gfge dGBd |]


Tune 177	Setting 177

